usr/share/icons/biglinux-icons-material-dark/22/actions/mail-mark-read.svg

<svg version="1.1" viewBox="0 0 22 22" xmlns="http://www.w3.org/2000/svg">
 <defs>
  <style id="current-color-scheme" type="text/css">.ColorScheme-Text {
        color:#dedede;
      }</style>
 </defs>
 <path d="m7 1c-1.108 0-2 0.892-2 2v1c-1.662 0-3 1.338-3 3v8c0 1.662 1.338 3 3 3h12c1.662 0 3-1.338 3-3v-8c0-1.662-1.338-3-3-3v-1c0-1.108-0.892-2-2-2h-8zm0 1h8c0.554 0 1 0.446 1 1v6.1582l-3.1406 2.3887c-1.0302 0.78348-2.6886 0.78347-3.7188 0l-3.1406-2.3887v-6.1582c0-0.554 0.446-1 1-1zm0.5 2c-0.277 0-0.5 0.223-0.5 0.5s0.223 0.5 0.5 0.5h7c0.277 0 0.5-0.223 0.5-0.5s-0.223-0.5-0.5-0.5h-7zm-2.5 1v3.3984l-1.9883-1.5117c0.059506-1.0538 0.9191-1.8867 1.9883-1.8867zm12 0c1.0692 0 1.9288 0.83294 1.9883 1.8867l-1.9883 1.5117v-3.3984zm-9.5 2c-0.277 0-0.5 0.223-0.5 0.5s0.223 0.5 0.5 0.5h7c0.277 0 0.5-0.223 0.5-0.5s-0.223-0.5-0.5-0.5h-7zm-4.5 1.1094 3.8008 2.8906-3.8008 2.8887v-5.7793zm16 0.0019531v5.7773l-3.7969-2.8887 3.7969-2.8887zm-11.391 3.5039 0.7207 0.54883c1.4653 1.1144 3.8764 1.1144 5.3418 0l0.71875-0.54687 4.5977 3.4961c-0.059506 1.0538-0.9191 1.8867-1.9883 1.8867h-12c-1.0692 0-1.9288-0.83294-1.9883-1.8867l4.5977-3.498z" class="ColorScheme-Text" fill="currentColor"/>
</svg>

<svg xmlns="http://www.w3.org/2000/svg" viewBox="0 0 22 22">
<defs>
<style id="current-color-scheme" type="text/css">
.ColorScheme-Text{color:#dedede}
</style>
</defs>
<path fill="currentColor" d="M7 1c-1.108 0-2 .892-2 2v1C3.338 4 2 5.338 2 7v8c0 1.662 1.338 3 3 3h12c1.662 0 3-1.338 3-3V7c0-1.662-1.338-3-3-3V3c0-1.108-.892-2-2-2zm0 1h8c.554 0 1 .446 1 1v6.158l-3.14 2.389c-1.03.783-2.69.783-3.72 0L6 9.158V3c0-.554.446-1 1-1m.5 2a.499.499 0 1 0 0 1h7a.499.499 0 1 0 0-1zM5 5v3.398L3.012 6.887A1.99 1.99 0 0 1 5 5m12 0a1.99 1.99 0 0 1 1.988 1.887L17 8.398zM7.5 7a.499.499 0 1 0 0 1h7a.499.499 0 1 0 0-1zM3 8.11 6.8 11 3 13.889zm16 .001v5.778L15.203 11zM7.609 11.615l.72.55c1.466 1.113 3.877 1.113 5.343 0l.718-.548 4.598 3.496A1.99 1.99 0 0 1 17 17H5a1.99 1.99 0 0 1-1.989-1.887z" class="ColorScheme-Text"/>
</svg>
